X: 777
T: Gamze Gamze Bir Gülüver...
C: Sezen Aksu
O: Turkey
F: http://compmusic.upf.edu/node/140
N: hicaz--fantezi--yuruksemai_ii--gamze_gamze--sezen_aksu
N: makam= hicaz
N: form= fantezi
N: usul= yuruksemai_ii = 6/8
M: 6/8
L: 1/16
K: C _7/8B ^f ^c 
Q: 1/4=120
%%MIDI tuningsystem comma53
=f2g2a8d2e2 f8  | B2c2d8e12  | =f2e2d8e2d2 c8  | \
w:  ARANAĞME  |   |   | 
d2c2B4 c2B2A2B2 c2d2e4  | 
w:   | 
=f2e2d8e2d2 c8  | d2c2B4 c2B2A12  | =f2g2a8d2e2 f8  | \
w:   |   |  ARANAĞME  | 
B2c2d8e12  | 
w:   | 
=f2e2d8e2d2 c8  | d2c2B4 c2B2A2B2 c2d2e4  | \
w:   |   | 
=f2e2d8e2d2 c8  | 
w:   | 
d2c2B4 c2B2A12  | d6e2 =f4e4 d8  | e2d2c4 B4c12  | \
w:   |  Gam ze  gam ze  bir   |  gü lü ver  şim di    | 
c2d6 e6d2 c8  | 
w:  Be ni  göğ sü ne   | 
d2c2B4 A4B12  | B6c2 d4c4 B8  | B2A2^G4 A4B12  | \
w:  a lı ver  şim di    |  Mev si mi  gel di   |  su sa dım  aş ka    | 
e4d6c2d6c2B4  | 
w:  Be nim le  bir  bü tün   | 
e2d2c2B2 B2A2A12  | d6e2 =f4e4 d8  | \
w:  o lu ver  *  şim *  di    |  Gam ze  gam ze  bir   | 
e2d2c4 B4c12  | c2d6 e6d2 c8  | 
w:  gü lü ver  şim di    |  Be ni  göğ sü ne   | 
d2c2B4 A4B12  | B6c2 d4c4 B8  | B2A2^G4 A4B12  | \
w:  a lı ver  şim di    |  Mev si mi  gel di   |  su sa dım  aş ka    | 
e4d6c2d6c2B4  | 
w:  Be nim le  bir  bü tün   | 
e2d2c2B2 B2A2A12  | =f4g6a2g4 f8  | b2a2g4 g2f2g12  | \
w:  o lu ver  *  şim *  di    |  İ kin ci  ba har   |  ya şı yor  öm *  rüm    | 
e6=f2 g4f4 e8  | 
w:  Gel  be nim  yâ rim   | 
a2g2=f4 f2e2f12  | d2e6 =f4e4 d8  | e2d2c6B2c12  | \
w:  o lu ver  şim *  di    |  Se ni  gül  gi bi   |  ö pe  kok la ya    | 
e2=f2e2f2 e2d2d2e2 d2e2d2c2  | 
w:  Gö züm *  *  den  *  di lim *  *  den   | 
c2d2c3d c3BB12  | d2e2d2e2 d2c2c2d2 c2d2c2B2  | \
w:  sa kı nır  *  sak *  lar    |  Bu gün *  *  kü  *  ak *  lım *  la   | 
e2d2c2B2 B2A2A12  | 
w:  se ve rim  *  şim *  di    | 
=f4g6a2g4 f8  | b2a2g4 g2f2g12  | e6=f2 g4f4 e8  | \
w:  İ kin ci  ba har   |  ya şı yor  öm *  rüm    |  Gel  be nim  yâ rim   | 
a2g2=f4 f2e2f12  | 
w:  o lu ver  şim *  di    | 
d2e6 =f4e4 d8  | e2d2c6B2c12  | e2=f2e2f2 e2d2d2e2 d2e2d2c2  | 
w:  Se ni  gül  gi bi   |  ö pe  kok la ya    |  Gö züm *  *  den  *  di lim *  *  den   | 
c2d2c3d c3BB12  | d2e2d2e2 d2c2c2d2 c2d2c2B2  | \
w:  sa kı nır  *  sak *  lar    |  Bu gün *  *  kü  *  ak *  lım *  la   | 
e2d2c2B2 B2A2A12  | 
w:  se ve rim  *  şim *  di    | 
=f6e2 d4d4 e4f4  | g4a4 b4c'2d'2 c'2d'2e'4  | \
w:  SAZ  |   | 
a2b2a2b2 a2g2g6a2g2=f2  | 
w:  Şi *  ir *  ler  *  şar kı lar   | 
g6a2 b4a12  | a4d'6=c'2d'2c'2 b4a4  | \
w:  söy le ye rek    |  Meh tâ bı  bir *  lik te   | 
b2a2g2f2 g2a2b12  | e'2d'6 =c'2d'6 c'4b4  | 
w:  sey *  re *  de *  rek    |  Be nim le  bir  rü ya   | 
d'2=c'2b4 b2a2a12  | =f8 g8 a8  | =f4g6a2g4 f8  | \
w:  ku ru ver  şim *  di   |  ah    |  İ kin ci  ba har   | 
b2a2g4 g2f2g12  | e6=f2 g4f4 e8  | 
w:  ya şı yor  öm *  rüm    |  Gel  be nim  yâ rim   | 
a2g2=f4 f2e2f12  | d2e6 =f4e4 d8  | e2d2c6B2c12  | \
w:  o lu ver  şim *  di    |  Se ni  gül  gi bi   |  ö pe  kok la ya    | 
e2=f2e2f2 e2d2d2e2 d2e2d2c2  | 
w:  Gö züm *  *  den  *  di lim *  *  den   | 
c2d2c3d c3BB12  | d2e2d2e2 d2c2c2d2 c2d2c2B2  | \
w:  sa kı nır  *  sak *  lar    |  Bu gün *  *  kü  *  ak *  lım *  la   | 
e2d2c2B2 B2A2A12  | 
w:  se ve rim  *  şim *  di    | 
=f4g6a2g4 f8  | b2a2g4 g2f2g12  | e6=f2 g4f4 e8  | \
w:  İ kin ci  ba har   |  ya şı yor  öm *  rüm    |  Gel  be nim  yâ rim   | 
a2g2=f4 f2e2f12  | 
w:  o lu ver  şim *  di    | 
d2e6 =f4e4 d8  | e2d2c6B2c12  | e2=f2e2f2 e2d2d2e2 d2e2d2c2  | 
w:  Se ni  gül  gi bi   |  ö pe  kok la ya    |  Gö züm *  *  den  *  di lim *  *  den   | 
c2d2c3d c3BB12  | d2e2d2e2 d2c2c2d2 c2d2c2B2  | \
w:  sa kı nır  *  sak *  lar    |  Bu gün *  *  kü  *  ak *  lım *  la   | 
e2d2c2B2 B2A2A12  | 
w:  se ve rim  *  şim *  di    | 
|


